Numix-Circle/48x48/apps/openscad.svg

<?xml version="1.0" encoding="UTF-8" standalone="no"?>
<svg
   xmlns:dc="http://purl.org/dc/elements/1.1/"
   xmlns:cc="http://creativecommons.org/ns#"
   xmlns:rdf="http://www.w3.org/1999/02/22-rdf-syntax-ns#"
   xmlns:svg="http://www.w3.org/2000/svg"
   xmlns="http://www.w3.org/2000/svg"
   xmlns:xlink="http://www.w3.org/1999/xlink"
   xmlns:sodipodi="http://sodipodi.sourceforge.net/DTD/sodipodi-0.dtd"
   xmlns:inkscape="http://www.inkscape.org/namespaces/inkscape"
   width="48"
   viewBox="0 0 13.546667 13.546667"
   height="48"
   id="svg2"
   version="1.1"
   inkscape:version="0.91 r13725"
   sodipodi:docname="openscad2.svg">
  <metadata
     id="metadata331">
    <rdf:RDF>
      <cc:Work
         rdf:about="">
        <dc:format>image/svg+xml</dc:format>
        <dc:type
           rdf:resource="http://purl.org/dc/dcmitype/StillImage" />
        <dc:title />
      </cc:Work>
    </rdf:RDF>
  </metadata>
  <sodipodi:namedview
     pagecolor="#ffffff"
     bordercolor="#666666"
     borderopacity="1"
     objecttolerance="10"
     gridtolerance="10"
     guidetolerance="10"
     inkscape:pageopacity="0"
     inkscape:pageshadow="2"
     inkscape:window-width="1366"
     inkscape:window-height="713"
     id="namedview329"
     showgrid="false"
     inkscape:zoom="32"
     inkscape:cx="23.297658"
     inkscape:cy="22.219573"
     inkscape:window-x="0"
     inkscape:window-y="28"
     inkscape:window-maximized="1"
     inkscape:current-layer="layer3"
     showguides="true"
     inkscape:guide-bbox="true">
    <inkscape:grid
       type="xygrid"
       id="grid3308" />
  </sodipodi:namedview>
  <defs
     id="defs4">
    <linearGradient
       inkscape:collect="always"
       xlink:href="#linearGradient3200"
       id="linearGradient4033"
       x1="-27"
       y1="13"
       x2="-24"
       y2="13"
       gradientUnits="userSpaceOnUse" />
    <linearGradient
       id="linearGradient3200">
      <stop
         id="stop3202"
         offset="0"
         style="stop-color:#f4f4f4;stop-opacity:1;" />
      <stop
         id="stop3204"
         offset="1"
         style="stop-color:#eaeaea;stop-opacity:1;" />
    </linearGradient>
  </defs>
  <g
     inkscape:groupmode="layer"
     id="layer1"
     inkscape:label="Shadow"
     sodipodi:insensitive="true">
    <path
       style="opacity:0.05;fill:#000000;fill-opacity:1;stroke:none"
       d="M 25,2 C 12.297451,2 2,12.297451 2,25 2,31.367153 4.6007106,37.116628 8.78125,41.28125 12.865755,44.99361 18.29568,47.25 24.25,47.25 c 12.702549,0 23,-10.297451 23,-23 0,-5.95432 -2.25639,-11.384245 -5.96875,-15.46875 C 37.116628,4.6007105 31.367153,2 25,2 z M 41.28125,8.78125 C 45.135604,12.894061 47.5,18.418655 47.5,24.5 c 0,12.702549 -10.297451,23 -23,23 C 18.418655,47.5 12.894061,45.135604 8.78125,41.28125 12.940939,45.4251 18.664604,48 25,48 37.702549,48 48,37.702549 48,25 48,18.664604 45.4251,12.940939 41.28125,8.78125 z"
       transform="scale(0.28222223,0.28222223)"
       id="path3978"
       inkscape:connector-curvature="0" />
    <path
       style="opacity:0.1;fill:#000000;fill-opacity:1;stroke:none"
       d="M 41.28125,8.78125 C 44.99361,12.865755 47.25,18.29568 47.25,24.25 c 0,12.702549 -10.297451,23 -23,23 -5.95432,0 -11.384245,-2.25639 -15.46875,-5.96875 C 12.894061,45.135604 18.418655,47.5 24.5,47.5 c 12.702549,0 23,-10.297451 23,-23 0,-6.081345 -2.364396,-11.605939 -6.21875,-15.71875 z"
       transform="scale(0.28222223,0.28222223)"
       id="path3976"
       inkscape:connector-curvature="0" />
    <path
       transform="matrix(4.3274074,0,0,3.2455556,117.19278,-35.348334)"
       d="m -24,13 a 1.5,2 0 1 1 -3,0 1.5,2 0 1 1 3,0 z"
       sodipodi:ry="2"
       sodipodi:rx="1.5"
       sodipodi:cy="13"
       sodipodi:cx="-25.5"
       id="path3952"
       style="opacity:0.2;fill:#000000;fill-opacity:1;stroke:none"
       sodipodi:type="arc" />
  </g>
  <g
     inkscape:groupmode="layer"
     id="layer2"
     inkscape:label="Base">
    <path
       sodipodi:type="arc"
       style="fill:url(#linearGradient4033);fill-opacity:1;stroke:none"
       id="path3942"
       sodipodi:cx="-25.5"
       sodipodi:cy="13"
       sodipodi:rx="1.5"
       sodipodi:ry="2"
       d="m -24,13 a 1.5,2 0 1 1 -3,0 1.5,2 0 1 1 3,0 z"
       transform="matrix(0,4.3274075,3.2455556,0,-35.418894,117.12222)" />
    <path
       style="opacity:0.1;fill:#000000;fill-opacity:1;stroke:none"
       d="M 40.03125 7.53125 C 43.74361 11.615755 46 17.04568 46 23 C 46 35.702549 35.702549 46 23 46 C 17.04568 46 11.615755 43.74361 7.53125 40.03125 C 11.709416 44.322508 17.537578 47 24 47 C 36.702549 47 47 36.702549 47 24 C 47 17.537578 44.322508 11.709416 40.03125 7.53125 z "
       id="path4027"
       transform="scale(0.28222223,0.28222223)" />
  </g>
  <g
     inkscape:groupmode="layer"
     id="layer3"
     inkscape:label="Symbol">
    <g
       id="g4772"
       transform="matrix(0.28222223,0,0,0.28222223,0.28222216,0.56444443)"
       style="opacity:0.1" />
    <path
       style="fill:#000000;fill-opacity:0.09803922;stroke:none"
       d="m 7.0555558,4.7977779 c -0.9472047,0 -1.7567183,0.5841303 -2.091862,1.4111111 l -1.0125826,0 A 0.56444446,0.84666666 0 0 0 3.3866668,7.0555557 0.56444446,0.84666666 0 0 0 3.9511112,7.9022224 l 1.0125826,0 c 0.3351437,0.8269811 1.1446573,1.4111112 2.091862,1.4111112 0.9472044,0 1.7567182,-0.5841301 2.0918619,-1.4111112 l 1.0125823,0 A 0.56444446,0.84666666 0 0 0 10.724445,7.0555557 0.56444446,0.84666666 0 0 0 10.16,6.208889 l -1.0125823,0 C 8.812274,5.3819082 8.0027602,4.7977779 7.0555558,4.7977779 Z m 0,1.4111111 c 0.467601,0 0.8466667,0.3790657 0.8466667,0.8466667 0,0.4676011 -0.3790657,0.8466667 -0.8466667,0.8466667 -0.4676011,0 -0.8466667,-0.3790656 -0.8466667,-0.8466667 0,-0.467601 0.3790656,-0.8466667 0.8466667,-0.8466667 z"
       id="path3374"
       inkscape:connector-curvature="0" />
    <g
       id="g3351">
      <path
         sodipodi:nodetypes="cccccccccc"
         id="rect4724"
         d="m 3.6688888,5.9266667 0,1.6933334 1.9755558,0 0,-1.6933334 z m 4.2333337,0 0,1.6933334 1.9755554,0 0,-1.6933334 z"
         style="fill:#fc5c74;fill-opacity:1;stroke:none"
         inkscape:connector-curvature="0" />
      <path
         transform="matrix(0.18814815,0,0,0.18814815,9.5014817,5.3622223)"
         d="m -28,7.5 a 3,4.5 0 1 1 -6,0 3,4.5 0 1 1 6,0 z"
         sodipodi:ry="4.5"
         sodipodi:rx="3"
         sodipodi:cy="7.5"
         sodipodi:cx="-31"
         id="path4726"
         style="fill:#d94c47;fill-opacity:1;stroke:none"
         sodipodi:type="arc" />
      <path
         sodipodi:type="arc"
         style="fill:#d94c47;fill-opacity:1;stroke:none"
         id="path4728"
         sodipodi:cx="-31"
         sodipodi:cy="7.5"
         sodipodi:rx="3"
         sodipodi:ry="4.5"
         d="m -28,7.5 a 3,4.5 0 1 1 -6,0 3,4.5 0 1 1 6,0 z"
         transform="matrix(0.18814815,0,0,0.18814815,15.71037,5.3622223)" />
      <path
         id="path4730"
         d="m 6.7733334,4.5155556 c -1.2469363,0 -2.2577779,1.0108416 -2.2577779,2.2577778 0,1.2469363 1.0108416,2.2577784 2.2577779,2.2577784 1.2469362,0 2.2577778,-1.0108421 2.2577778,-2.2577784 0,-1.2469362 -1.0108416,-2.2577778 -2.2577778,-2.2577778 z m 0,1.4111111 c 0.467601,0 0.8466667,0.3790657 0.8466667,0.8466667 0,0.4676011 -0.3790657,0.8466667 -0.8466667,0.8466667 -0.4676011,0 -0.8466668,-0.3790656 -0.8466668,-0.8466667 0,-0.467601 0.3790657,-0.8466667 0.8466668,-0.8466667 z"
         style="fill:#ffc100;fill-opacity:1;stroke:none"
         inkscape:connector-curvature="0" />
    </g>
  </g>
</svg>

<svg xmlns="http://www.w3.org/2000/svg" width="48" viewBox="0 0 13.546667 13.546667" height="48"><defs><linearGradient id="linearGradient4033" x1="-27" x2="-24" gradientUnits="userSpaceOnUse"><stop stop-color="#f4f4f4" stop-opacity="1"/><stop offset="1" stop-color="#eaeaea" stop-opacity="1"/></linearGradient></defs><g><path d="m 25 2 c -12.703 0 -23 10.297 -23 23 0 6.367 2.601 12.12 6.781 16.281 4.085 3.712 9.514 5.969 15.469 5.969 c 12.703 0 23 -10.297 23 -23 0 -5.954 -2.256 -11.384 -5.969 -15.469 c -4.165 -4.181 -9.914 -6.781 -16.281 -6.781 z m 16.281 6.781 c 3.854 4.113 6.219 9.637 6.219 15.719 c 0 12.703 -10.297 23 -23 23 c -6.081 0 -11.606 -2.364 -15.719 -6.219 4.16 4.144 9.883 6.719 16.219 6.719 12.703 0 23 -10.297 23 -23 0 -6.335 -2.575 -12.06 -6.719 -16.219 z" transform="scale(0.28222223,0.28222223)" opacity="0.05" fill="#000" stroke="none" fill-opacity="1"/><path d="m 41.28 8.781 c 3.712 4.085 5.969 9.514 5.969 15.469 c 0 12.703 -10.297 23 -23 23 -5.954 0 -11.384 -2.256 -15.469 -5.969 c 4.113 3.854 9.637 6.219 15.719 6.219 c 12.703 0 23 -10.297 23 -23 0 -6.081 -2.364 -11.606 -6.219 -15.719 z" transform="scale(0.28222223,0.28222223)" opacity="0.1" fill="#000" stroke="none" fill-opacity="1"/><path transform="matrix(4.3274074,0,0,3.2455556,117.19278,-35.348334)" d="m -24 13 a 1.5 2 0 1 1 -3 0 1.5 2 0 1 1 3 0 z" opacity="0.2" fill="#000" stroke="none" fill-opacity="1"/></g><g><path d="m -24 13 a 1.5 2 0 1 1 -3 0 1.5 2 0 1 1 3 0 z" transform="matrix(0,4.3274075,3.2455556,0,-35.418894,117.12222)" fill="url(#linearGradient4033)" stroke="none" fill-opacity="1"/><path d="m 40.03 7.531 c 3.712 4.085 5.969 9.514 5.969 15.469 c 0 12.703 -10.297 23 -23 23 c -5.954 0 -11.384 -2.256 -15.469 -5.969 c 4.178 4.291 10.01 6.969 16.469 6.969 c 12.703 0 23 -10.297 23 -23 c 0 -6.462 -2.677 -12.291 -6.969 -16.469 z" transform="scale(0.28222223,0.28222223)" opacity="0.1" fill="#000" stroke="none" fill-opacity="1"/></g><g><path d="m 7.06 4.798 c -0.947 0 -1.757 0.584 -2.092 1.411 l -1.013 0 a 0.564 0.847 0 0 0 -0.564 0.847 0.564 0.847 0 0 0 0.564 0.847 l 1.013 0 c 0.335 0.827 1.145 1.411 2.092 1.411 0.947 0 1.757 -0.584 2.092 -1.411 l 1.013 0 a 0.564 0.847 0 0 0 0.564 -0.847 0.564 0.847 0 0 0 -0.564 -0.847 l -1.013 0 c -0.335 -0.827 -1.145 -1.411 -2.092 -1.411 m 0 1.411 c 0.468 0 0.847 0.379 0.847 0.847 0 0.468 -0.379 0.847 -0.847 0.847 -0.468 0 -0.847 -0.379 -0.847 -0.847 0 -0.468 0.379 -0.847 0.847 -0.847 z" fill="#000" stroke="none" fill-opacity="0.098"/><g><path d="m 3.669 5.927 0 1.693 1.976 0 0 -1.693 z m 4.233 0 0 1.693 1.976 0 0 -1.693 z" fill="#fc5c74" stroke="none" fill-opacity="1"/><path transform="matrix(0.18814815,0,0,0.18814815,9.5014817,5.3622223)" d="m -28 7.5 a 3 4.5 0 1 1 -6 0 3 4.5 0 1 1 6 0 z" fill="#d94c47" stroke="none" fill-opacity="1"/><path d="m -28 7.5 a 3 4.5 0 1 1 -6 0 3 4.5 0 1 1 6 0 z" transform="matrix(0.18814815,0,0,0.18814815,15.71037,5.3622223)" fill="#d94c47" stroke="none" fill-opacity="1"/><path d="m 6.773 4.516 c -1.247 0 -2.258 1.01 -2.258 2.258 0 1.247 1.01 2.258 2.258 2.258 1.247 0 2.258 -1.01 2.258 -2.258 0 -1.247 -1.01 -2.258 -2.258 -2.258 z m 0 1.411 c 0.468 0 0.847 0.379 0.847 0.847 0 0.468 -0.379 0.847 -0.847 0.847 -0.468 0 -0.847 -0.379 -0.847 -0.847 0 -0.468 0.379 -0.847 0.847 -0.847 z" fill="#ffc100" stroke="none" fill-opacity="1"/></g></g></svg>
